Numix/16/status/indicator-keyboard-Nl.svg

<?xml version="1.0" encoding="UTF-8" standalone="no"?>
<svg
   xmlns:dc="http://purl.org/dc/elements/1.1/"
   xmlns:cc="http://creativecommons.org/ns#"
   xmlns:rdf="http://www.w3.org/1999/02/22-rdf-syntax-ns#"
   xmlns:svg="http://www.w3.org/2000/svg"
   xmlns="http://www.w3.org/2000/svg"
   xmlns:sodipodi="http://sodipodi.sourceforge.net/DTD/sodipodi-0.dtd"
   xmlns:inkscape="http://www.inkscape.org/namespaces/inkscape"
   viewBox="0 0 16 16"
   id="svg2"
   version="1.1"
   inkscape:version="0.91 r13725"
   sodipodi:docname="indicator-keyboard-Nl.svg">
  <metadata
     id="metadata13">
    <rdf:RDF>
      <cc:Work
         rdf:about="">
        <dc:format>image/svg+xml</dc:format>
        <dc:type
           rdf:resource="http://purl.org/dc/dcmitype/StillImage" />
      </cc:Work>
    </rdf:RDF>
  </metadata>
  <defs
     id="defs11" />
  <sodipodi:namedview
     pagecolor="#ffffff"
     bordercolor="#666666"
     borderopacity="1"
     objecttolerance="10"
     gridtolerance="10"
     guidetolerance="10"
     inkscape:pageopacity="0"
     inkscape:pageshadow="2"
     inkscape:window-width="459"
     inkscape:window-height="369"
     id="namedview9"
     showgrid="false"
     inkscape:zoom="14.75"
     inkscape:cx="8"
     inkscape:cy="8"
     inkscape:window-x="65"
     inkscape:window-y="24"
     inkscape:window-maximized="0"
     inkscape:current-layer="svg2" />
  <path
     style="fill:#ececec;fill-opacity:1"
     d="M 1.5996094 0 C 0.71320937 2.9605947e-16 0 0.71320937 0 1.5996094 L 0 14.400391 C 2.9605947e-16 15.286791 0.71320937 16 1.5996094 16 L 14.400391 16 C 15.286791 16 16 15.286791 16 14.400391 L 16 1.5996094 C 16 0.71320937 15.286791 0 14.400391 0 L 1.5996094 0 z M 11.119141 4.4667969 L 11.119141 10.318359 C 11.119141 10.462359 11.130297 10.577969 11.154297 10.667969 C 11.184297 10.751969 11.22725 10.821 11.28125 10.875 C 11.33525 10.923 11.404281 10.960375 11.488281 10.984375 C 11.578281 11.008375 11.682734 11.028875 11.802734 11.046875 L 11.720703 11.533203 C 11.522703 11.527203 11.349219 11.499172 11.199219 11.451172 C 11.055219 11.409172 10.932078 11.343906 10.830078 11.253906 C 10.734078 11.157906 10.659469 11.036578 10.605469 10.892578 C 10.557469 10.742578 10.533203 10.557938 10.533203 10.335938 L 10.533203 4.5761719 L 11.119141 4.4667969 z M 4.1972656 5.2148438 L 4.6835938 5.2148438 C 4.9895937 5.5568437 5.3160625 5.9523438 5.6640625 6.4023438 C 6.0180625 6.8463438 6.3632187 7.3015312 6.6992188 7.7695312 C 7.0352187 8.2315312 7.3467656 8.6849063 7.6347656 9.1289062 C 7.9287656 9.5729063 8.1694687 9.9610156 8.3554688 10.291016 L 8.3554688 5.2148438 L 8.9589844 5.2148438 L 8.9589844 11.451172 L 8.4453125 11.451172 C 8.3313125 11.241172 8.1839063 10.994891 8.0039062 10.712891 C 7.8299063 10.430891 7.6377344 10.132453 7.4277344 9.8144531 C 7.2177344 9.4904531 6.9957187 9.1602187 6.7617188 8.8242188 C 6.5277187 8.4822187 6.2945469 8.1519844 6.0605469 7.8339844 C 5.8325469 7.5099844 5.6067656 7.2058281 5.3847656 6.9238281 C 5.1687656 6.6418281 4.9747812 6.3993125 4.8007812 6.1953125 L 4.8007812 11.451172 L 4.1972656 11.451172 L 4.1972656 5.2148438 z "
     id="path4" />
</svg>

<svg xmlns="http://www.w3.org/2000/svg" viewBox="0 0 16 16">
 <path d="m 1.6 0 c -0.886 0 -1.6 0.713 -1.6 1.6 l 0 12.801 c 0 0.886 0.713 1.6 1.6 1.6 l 12.801 0 c 0.886 0 1.6 -0.713 1.6 -1.6 l 0 -12.801 c 0 -0.886 -0.713 -1.6 -1.6 -1.6 l -12.801 0 z m 9.52 4.467 l 0 5.852 c 0 0.144 0.011 0.26 0.035 0.35 c 0.03 0.084 0.073 0.153 0.127 0.207 c 0.054 0.048 0.123 0.085 0.207 0.109 c 0.09 0.024 0.194 0.044 0.314 0.063 l -0.082 0.486 c -0.198 -0.006 -0.371 -0.034 -0.521 -0.082 c -0.144 -0.042 -0.267 -0.107 -0.369 -0.197 c -0.096 -0.096 -0.171 -0.217 -0.225 -0.361 c -0.048 -0.15 -0.072 -0.335 -0.072 -0.557 l 0 -5.76 l 0.586 -0.109 z m -6.922 0.748 l 0.486 0 c 0.306 0.342 0.632 0.738 0.98 1.188 c 0.354 0.444 0.699 0.899 1.035 1.367 c 0.336 0.462 0.648 0.915 0.936 1.359 c 0.294 0.444 0.535 0.832 0.721 1.162 l 0 -5.076 l 0.604 0 l 0 6.236 l -0.514 0 c -0.114 -0.21 -0.261 -0.456 -0.441 -0.738 c -0.174 -0.282 -0.366 -0.58 -0.576 -0.898 c -0.21 -0.324 -0.432 -0.654 -0.666 -0.99 c -0.234 -0.342 -0.467 -0.672 -0.701 -0.99 c -0.228 -0.324 -0.454 -0.628 -0.676 -0.91 c -0.216 -0.282 -0.41 -0.525 -0.584 -0.729 l 0 5.256 l -0.604 0 l 0 -6.236 z" style="fill:#ececec;fill-opacity:1"/>
</svg>
